icons/menu-unfold-fill.svg

<svg xmlns="http://www.w3.org/2000/svg" width="24" height="24" fill="none"><g clip-path="url(#a)"><g><path fill="#121212" d="M21 18V20H3V18H21ZM17.05 3.55005L22 8.50005L17.05 13.45V3.55005ZM12 11V13H3V11H12ZM12 4.00005V6.00005H3V4.00005H12Z"/></g></g><defs><clipPath id="a"><rect width="24" height="24" fill="white"/></clipPath></defs></svg>

<svg width="24" height="24" fill="none" xmlns="http://www.w3.org/2000/svg"><g clip-path="url(#a)"><path d="M21 18v2H3v-2h18ZM17.05 3.55 22 8.5l-4.95 4.95v-9.9ZM12 11v2H3v-2h9Zm0-7v2H3V4h9Z" /></g><defs><clipPath id="a"><path fill="#fff" d="M0 0h24v24H0z"/></clipPath></defs></svg>
